projects/plugins/jetpack/images/plans/jetpack-complete.svg

<svg fill="none" height="64" viewBox="0 0 64 64" width="64" xmlns="http://www.w3.org/2000/svg"><circle cx="32" cy="32" fill="#069e08" r="32"/><path d="m32 64c17.6731 0 32-14.3269 32-32s-14.3269-32-32-32-32 14.3269-32 32 14.3269 32 32 32z" fill="#069e08"/><g fill="#fff"><path d="m33.5877 26.6259v31.0229l16-31.0229z"/><path d="m30.3512 37.3129v-30.9618l-15.9389 30.9618z"/></g></svg>

<svg width="64" height="64" viewBox="0 0 64 64" fill="none" xmlns="http://www.w3.org/2000/svg">
<circle cx="32" cy="32" r="32" fill="#069E08"/>
<path d="M32 64C49.6731 64 64 49.6731 64 32C64 14.3269 49.6731 0 32 0C14.3269 0 0 14.3269 0 32C0 49.6731 14.3269 64 32 64Z" fill="#069E08"/>
<path d="M33.5877 26.6259V57.6488L49.5877 26.6259H33.5877Z" fill="white"/>
<path d="M30.3512 37.3129V6.3511L14.4123 37.3129H30.3512Z" fill="white"/>
</svg>
